resources/svg/twitter-footer.svg

<svg xmlns="http://www.w3.org/2000/svg" width="32" height="32" viewBox="0 0 32 32" fill="none">
    <path fill-rule="evenodd" clip-rule="evenodd" d="M2.66602 15.9993C2.66602 8.63935 8.63935 2.66602 15.9993 2.66602C23.3593 2.66602 29.3327 8.63935 29.3327 15.9993C29.3327 23.3593 23.3593 29.3327 15.9993 29.3327C8.63935 29.3327 2.66602 23.3593 2.66602 15.9993ZM9.30435 23L14.265 17.073L9 9H13.8696L17.0019 13.8029L21.0217 9H22.8478L17.8017 15.0292L23 23H18.1304L15.0647 18.2993L11.1304 23H9.30435ZM13.1648 10.5H11.6613L18.8352 21.5H20.3387L13.1648 10.5Z" fill="#040404"/>
</svg>

<svg xmlns="http://www.w3.org/2000/svg" width="32" height="32" fill="none"><path fill-rule="evenodd" clip-rule="evenodd" d="M2.7 16a13.3 13.3 0 1 1 26.6 0 13.3 13.3 0 0 1-26.6 0Zm6.6 7 5-6L9 9h4.9l3.1 4.8L21 9h1.8l-5 6 5.2 8h-4.9l-3-4.7-4 4.7H9.3Zm3.9-12.5h-1.5l7.1 11h1.5l-7.1-11Z" fill="#040404"/></svg>
